X:1
T:There’s a Light in the Bible
T:There’s a Light in the Bible
T:W. H. Wonder
T:W. H. Wonder, 1880
T:Public Domain Courtesy of the Cyber Hymnal™
T:Public Domain Courtesy of the Cyber Hymnal™
C:W. H. Wonder
Z:Public Domain
Z:Courtesy of the Cyber Hymnal™
%%score ( 1 2 ) ( 3 4 )
L:1/8
Q:1/4=105
M:4/4
K:Ab
V:1 treble 
V:2 treble 
V:3 bass 
V:4 bass 
V:1
 [Ac]>[Ad] | [Ge]2 [Ec][EB] [EA][EA] E2 | [DF]6 [DG]>[CA] | [EB]2 [EB][Ac] [Gd]2 [Ge][Gd] | %4
w: 1.~There’s a|light in the Bi- ble for|me, Yes, for|me, in the Book, I am|
w: 2.~There’s a|light in the Bi- ble for|thee, With a|beau- ti- ful, beau- ti- ful|
w: 3.~There’s a|light in the Bi- ble for|all, It is|beam- ing, all lov- ing and|
 [Ac]6 [Ac]>[Ad] | [Ae]2 [Ec][EB] [EA]2 EE | [DF]2 [DF][EG] !fermata![FA]2 [EG][DF] | %7
w: told; Oh, the|light of its love In its|rich- ness I see, As in|
w: beam; ’Tis the|light for thy way That its|dan- gers may flee, Oh, then,|
w: kind; It will|scat- ter the gloom Of the|doubts that en- thrall; ’Tis the|
 [CE]2 [EA][Ac] [Ae]2 [Ec][EB] | [EA]6 ||"^Refrain" [Ac]>[Ad] | [Ae]6 [Ac]>[GB] | AA z4 [CA][DB] | %12
w: faith I its pag- es un-|fold.||||
w: catch its bright, beau- ti- ful|gleam.|There’s a|light in the|Bi- ble, That will|
w: prom- ise, who seek it shall|find.||||
 [Ec]2 [Ec]>[Ec] [Ec][Ac] ([GB]A) | [GB]4 z2 [Ge]>[Bd] | [Ac]6 [GB]>[FA] | [DF][FA] z4 [EG][DF] | %16
w: ||||
w: shine thro’ the val- ley of *|death; There’s a|light in the|Bi- ble, That will|
w: ||||
 [CE]2 [CA][Ec] [Ae]2 [Ec][EB] | [EA]6 |] %18
w: ||
w: shine thro’ the val- ley of|death.|
w: ||
V:2
 x2 | x6 E2 | x8 | x8 | x8 | x6 EE | x8 | x8 | x6 || x2 | x8 | AA x6 | x7 A | x8 | x8 | x8 | x8 | %17
 x6 |] %18
V:3
 A,>[A,B,] | [A,C]2 [A,E][A,D] [A,C][A,C] [C,A,]2 | [D,A,]6 E,>E, | %3
w: ~ ~|~ ~ ~ ~ ~ ~|~ ~ ~|
 [E,G,]2 [E,G,][E,A,] [E,B,]2 [E,C][E,B,] | A,6 A,>[A,B,] | [A,C]2 [A,E][A,D] [A,C]2 [C,A,][C,A,] | %6
w: ~ ~ ~ ~ ~ ~|~ ~ ~|~ ~ ~ ~ ~ ~|
 [D,A,]2 [D,A,][D,A,] !fermata![D,A,]2 [D,A,][D,A,] | [E,A,]2 [E,C][E,E] [E,C]2 [E,E][E,D] | %8
w: ~ ~ ~ ~ ~ ~|~ ~ ~ ~ ~ ~|
 [A,C]6 || A,>[A,B,] | [A,C]2 [A,C]>[A,C] [A,C][A,C] [A,E]>[A,D] | [A,C]2 [A,C]2 [A,C]2 A,A, | %12
w: ~|There’s a|light in the Bi- ble, there’s a|light for all. ~ ~|
 A,2 A,>A, A,[A,E][G,E][F,^D] | [E,E]4 z2 [E,B,]>[E,E] | [A,E]2 [A,E]>[A,E] [A,E][A,E] A,>A, | %15
w: ~ ~ ~ ~ ~ ~ ~|~ There’s a|light in the Bi- ble, there’s a|
 [D,A,]2 [D,F,]2 [D,F,]2 [D,A,][D,A,] | [E,A,]2 [E,A,][E,A,] [E,C]2 [E,E][E,D] | [A,,C]6 |] %18
w: light for all. * *|||
V:4
 A,3/2 x/ | x8 | x6 E,>E, | x8 | A,6 .A,3/2 x/ | x8 | x8 | x8 | x6 || A,3/2 x/ | x8 | x6 A,A, | %12
 A,2 A,>A, A, x3 | x8 | x6 A,>A, | x8 | x8 | x6 |] %18

